tools/download-figma-icons/icons/outlined-medium/window-alarm.svg

<svg width="24" height="24" viewBox="0 0 24 24" fill="none" xmlns="http://www.w3.org/2000/svg">
<path fill-rule="evenodd" clip-rule="evenodd" d="M11.9998 19.5001C13.028 19.5001 13.889 20.1976 14.156 21.1418H20.2496V12.0002H3.74992V21.1418H9.84355C10.1105 20.1976 10.9715 19.5001 11.9998 19.5001ZM11.2498 21.75C11.2498 22.1633 11.5858 22.5 11.9998 22.5C12.4137 22.5 12.7497 22.1633 12.7497 21.75C12.7497 21.3361 12.4137 21.0001 11.9998 21.0001C11.5858 21.0001 11.2498 21.3361 11.2498 21.75ZM6.96961 6.9701L12.4392 1.50046H3.74992V10.5003H12.4392L15.9694 6.9701C16.2627 6.67685 16.7367 6.67685 17.0299 6.9701C17.3231 7.26259 17.3231 7.73733 17.0299 8.03057L14.5602 10.5003H20.2496V1.50046H14.5602L8.03009 8.03057C7.88384 8.17682 7.69184 8.25032 7.49985 8.25032C7.30785 8.25032 7.11586 8.17682 6.96961 8.03057C6.67636 7.73733 6.67636 7.26259 6.96961 6.9701ZM2.99994 0.000488271H20.9996C21.4143 0.000488271 21.7496 0.335731 21.7496 0.750473V21.8918C21.7496 22.3065 21.4143 22.6418 20.9996 22.6418H14.0637C13.7172 23.439 12.923 24 11.9998 24C11.0765 24 10.2823 23.439 9.9358 22.6418H2.99994C2.5852 22.6418 2.24995 22.3065 2.24995 21.8918V0.750473C2.24995 0.335731 2.5852 0.000488271 2.99994 0.000488271ZM11.999 13.4998H11.9983C9.50531 13.4998 7.1706 14.6616 5.42164 16.7713C5.15839 17.09 5.20189 17.5633 5.52139 17.828C5.66163 17.9435 5.83038 17.9998 5.99913 17.9998C6.21512 17.9998 6.42887 17.9075 6.57737 17.7283C8.03534 15.9688 9.9598 14.9998 11.9983 14.9998C14.039 14.9998 15.9649 15.9688 17.4214 17.7283C17.6861 18.0463 18.1579 18.092 18.4781 17.828C18.7969 17.5633 18.8411 17.09 18.5771 16.7713C16.8297 14.6616 14.4935 13.4998 11.999 13.4998ZM11.999 16.4998H11.9983C10.6385 16.4998 9.36807 17.129 8.42159 18.2712C8.15835 18.59 8.2026 19.0632 8.52134 19.328C8.84158 19.592 9.31407 19.5477 9.57732 19.2282C10.2336 18.4362 11.093 17.9998 11.9983 17.9998C12.905 17.9998 13.7652 18.4362 14.4222 19.2282C14.5707 19.4075 14.7845 19.4997 15.0005 19.4997C15.1692 19.4997 15.338 19.4435 15.4782 19.3272C15.7969 19.0632 15.8412 18.59 15.5772 18.2712C14.6307 17.129 13.3595 16.4998 11.999 16.4998Z" fill="black"/>
</svg>

<svg xmlns="http://www.w3.org/2000/svg" width="24" height="24" fill="none" viewBox="0 0 24 24"><path fill="currentColor" fill-rule="evenodd" d="M12 19.5c1.028 0 1.889.698 2.156 1.642h6.094V12H3.75v9.142h6.094A2.246 2.246 0 0 1 12 19.5m-.75 2.25a.75.75 0 1 0 1.501-.001.75.75 0 0 0-1.501.001M6.97 6.97l5.47-5.47H3.75v9h8.69l3.53-3.53a.75.75 0 1 1 1.06 1.06l-2.47 2.47h5.69v-9h-5.69L8.03 8.03a.75.75 0 0 1-1.06 0 .75.75 0 0 1 0-1.06M3 0h18a.75.75 0 0 1 .75.75v21.142a.75.75 0 0 1-.75.75h-6.936A2.25 2.25 0 0 1 12 24a2.25 2.25 0 0 1-2.064-1.358H3a.75.75 0 0 1-.75-.75V.75A.75.75 0 0 1 3 0m8.999 13.5c-2.494 0-4.828 1.162-6.577 3.271a.751.751 0 0 0 1.155.957C8.035 15.968 9.96 15 11.998 15c2.041 0 3.967.969 5.423 2.728a.751.751 0 0 0 1.156-.957C16.83 14.661 14.493 13.5 12 13.5m0 3c-1.36 0-2.63.629-3.577 1.771a.75.75 0 1 0 1.156.957c.656-.792 1.515-1.228 2.42-1.228.907 0 1.767.436 2.424 1.228a.75.75 0 0 0 1.056.1.75.75 0 0 0 .1-1.057C14.63 17.13 13.36 16.5 11.998 16.5" clip-rule="evenodd"/></svg>
